X: 1
T: The Kesh Jig
R: jig
M: 6/8
L: 1/8
K: Gmaj
|: "G" G3 GAB | "D" A3 ABd | "G" edB G2 A | "D" B2 A BGE |
| "G" G3 GAB | "D" A3 ABd | "G" edB G2 A | "D" BGF "G" G3 :|
|: "G" B3 dBd | "C" ege dBG | "G" B3 dBG | "D" ABA AGE |
| "G" B3 dBd | "C" ege dBd | "G" g2 d edB | "D" BGF "G" G3 :|
